X:925
T:Paddy Fahy's
T:Paddy Fahey's
R:reel
C:Paddy Fahy
H:Also played in G, #755, and in D #533
Z:id:hn-reel-925
M:C|
K:C
cBGF DEFD | G2~G2 BcdB | cBGA Bcde | f2ef dfed |
cBGF DEFD | G2~G2 BcdB | cBGA Bcdc | BGFD CDEG :|
|: c2ge fdec | cBGF DEFD | Gc~c2 gcec | cBGF GccB |
c2de fddc | BdGA _BABc | dgge fefa | gfdc BcdB :|
P:variations
|: cBGF DEFD | G2DG BGBd | cBGA Bcde | fdef dfed |
cBGF DEFD | G2DG BGBd | cBGA Bcdc | BGFD CDEG :|
|: c2eg fecd | cBGF DEFD | GcBc gceg | fdcB GccB |
c2de fddc | BGGA _B3c | dggf defd | gfdc BcdB :|

